[G-CODE GENERATED BY X-WINDER DESIGNER v418 on 10/21/2025 15:25]
[FileName= DrewL2.X4G ]
[Units are in INCHES ]
[FilePath= C:\Program Files (x86)\X-Winder\X-Winder40\XW_G-Code_Files\ ]
[GENERAL PART DESCRIPTION: LeftDia=3.750 RightDia=3.750 ]
[GENERAL PART DESCRIPTION: TotLen=45.00 FilaWidth=0.230 ]
[GENERAL PART DESCRIPTION: FilaThickness=0.0130 ]


[INITIALIZE WINDING SESSION -------------------------------- ]
C C0 [DECIMAL COMMA FORMAT = NO]
G20 [Units are Inches]
G90 [Absolute Positioning]
X V418.000 T3 Z2.500 Y4.438 [X-WINDER DESIGNER VERSION NUMBER, FILE TYPE, AND Z-AXIS MEAS. OFFSET DISTANCE]
M711 H0 M42 S0 [Estimated Total Build Time]

[ENABLE STEPPERS AND MOVE TO STARTING POSITION --------------- ]
M17 [Enable Steppers]
G1 I10 J10 K10 N10 O10 T10 [Linear and Angular Acceleration Settings of Axes]
G28 E2.000 R9 F1.000 C0.00 [Move Axes to Limit Switches]
G4 P10000 [Pause 1s at Carriage Limit Switch]
G1 J1.250 K1.250 O1.250 T10 [Set Axes Accels]
G4 Z P10000 [Pause 1000ms]
G1 F1 Z7.00 Y2.575 E1 B0.00 R20

[BEGIN 3-AXIS WINDING WITH DH ROTARY MOVEMENT -------------------------------------------------- ]
D0 ST=Winding Schedule
M0 [Wait for Button Press to Begin  Winding Schedule]



[Layer 2 : Pass 1]
D0 LA=2_of_3 PA=1_of_30 RPM=29.09 CS=4 WA=55 WM=ms TI=-14.1 LD=3.75 FW=0.23 [Display Layer Properties]
M4 S29.09 [Mandrel CW Rotation]
G4 C360 [360 DEG AT START]
M602 [Save the Mandrel Home End Reference Angle at Start of First Pass to Register L602]
G1 F4 Z72.00 R11.09 B40.00 [Move Far End]
G4 C360 R11.09 B0.00 [Dwell Far End]
G4 C360 [Add Extra 360 deg.]
M601 [Save Mandrel Ref Angle]
G1 F4 Z7.00 R11.09 B-40.00 [Move Home End]
G4 L602 C12.00 R11.09 B0.00 [Dwell Home End]
G4 C360 [Add Extra 360 deg.]

[Layer 2 : Pass 2]
D0 LA=2_of_3 PA=2_of_30 RPM=29.09 CS=4 WA=55 WM=ms LD=3.75 FW=0.23 HL= [Display Layer Properties]
G1 Z72.00 R11.09 B40.00 [Move Far End]
G4 L601 C12.00 R11.09 B0.00 [Dwell Far End]
G4 C360 [Add Extra 360 deg.]
G1 Z7.00 R11.09 B-40.00 [Move Home End]
G4 L602 C24.00 R11.09 B0.00 [Dwell Home End]
G4 C360 [Add Extra 360 deg.]

[Layer 2 : Pass 3]
D0 LA=2_of_3 PA=3_of_30 RPM=29.09 CS=4 WA=55 WM=ms LD=3.75 FW=0.23 HL= [Display Layer Properties]
G1 Z72.00 R11.09 B40.00 [Move Far End]
G4 L601 C24.00 R11.09 B0.00 [Dwell Far End]
G4 C360 [Add Extra 360 deg.]
G1 Z7.00 R11.09 B-40.00 [Move Home End]
G4 L602 C36.00 R11.09 B0.00 [Dwell Home End]
G4 C360 [Add Extra 360 deg.]

[Layer 2 : Pass 4]
D0 LA=2_of_3 PA=4_of_30 RPM=29.09 CS=4 WA=55 WM=ms LD=3.75 FW=0.23 HL= [Display Layer Properties]
G1 Z72.00 R11.09 B40.00 [Move Far End]
G4 L601 C36.00 R11.09 B0.00 [Dwell Far End]
G4 C360 [Add Extra 360 deg.]
G1 Z7.00 R11.09 B-40.00 [Move Home End]
G4 L602 C48.00 R11.09 B0.00 [Dwell Home End]
G4 C360 [Add Extra 360 deg.]

[Layer 2 : Pass 5]
D0 LA=2_of_3 PA=5_of_30 RPM=29.09 CS=4 WA=55 WM=ms LD=3.75 FW=0.23 HL= [Display Layer Properties]
G1 Z72.00 R11.09 B40.00 [Move Far End]
G4 L601 C48.00 R11.09 B0.00 [Dwell Far End]
G4 C360 [Add Extra 360 deg.]
G1 Z7.00 R11.09 B-40.00 [Move Home End]
G4 L602 C60.00 R11.09 B0.00 [Dwell Home End]
G4 C360 [Add Extra 360 deg.]

[Layer 2 : Pass 6]
D0 LA=2_of_3 PA=6_of_30 RPM=29.09 CS=4 WA=55 WM=ms LD=3.75 FW=0.23 HL= [Display Layer Properties]
G1 Z72.00 R11.09 B40.00 [Move Far End]
G4 L601 C60.00 R11.09 B0.00 [Dwell Far End]
G4 C360 [Add Extra 360 deg.]
G1 Z7.00 R11.09 B-40.00 [Move Home End]
G4 L602 C72.00 R11.09 B0.00 [Dwell Home End]
G4 C360 [Add Extra 360 deg.]

[Layer 2 : Pass 7]
D0 LA=2_of_3 PA=7_of_30 RPM=29.09 CS=4 WA=55 WM=ms LD=3.75 FW=0.23 HL= [Display Layer Properties]
G1 Z72.00 R11.09 B40.00 [Move Far End]
G4 L601 C72.00 R11.09 B0.00 [Dwell Far End]
G4 C360 [Add Extra 360 deg.]
G1 Z7.00 R11.09 B-40.00 [Move Home End]
G4 L602 C84.00 R11.09 B0.00 [Dwell Home End]
G4 C360 [Add Extra 360 deg.]

[Layer 2 : Pass 8]
D0 LA=2_of_3 PA=8_of_30 RPM=29.09 CS=4 WA=55 WM=ms LD=3.75 FW=0.23 HL= [Display Layer Properties]
G1 Z72.00 R11.09 B40.00 [Move Far End]
G4 L601 C84.00 R11.09 B0.00 [Dwell Far End]
G4 C360 [Add Extra 360 deg.]
G1 Z7.00 R11.09 B-40.00 [Move Home End]
G4 L602 C96.00 R11.09 B0.00 [Dwell Home End]
G4 C360 [Add Extra 360 deg.]

[Layer 2 : Pass 9]
D0 LA=2_of_3 PA=9_of_30 RPM=29.09 CS=4 WA=55 WM=ms LD=3.75 FW=0.23 HL= [Display Layer Properties]
G1 Z72.00 R11.09 B40.00 [Move Far End]
G4 L601 C96.00 R11.09 B0.00 [Dwell Far End]
G4 C360 [Add Extra 360 deg.]
G1 Z7.00 R11.09 B-40.00 [Move Home End]
G4 L602 C108.00 R11.09 B0.00 [Dwell Home End]
G4 C360 [Add Extra 360 deg.]

[Layer 2 : Pass 10]
D0 LA=2_of_3 PA=10_of_30 RPM=29.09 CS=4 WA=55 WM=ms LD=3.75 FW=0.23 HL= [Display Layer Properties]
G1 Z72.00 R11.09 B40.00 [Move Far End]
G4 L601 C108.00 R11.09 B0.00 [Dwell Far End]
G4 C360 [Add Extra 360 deg.]
G1 Z7.00 R11.09 B-40.00 [Move Home End]
G4 L602 C120.00 R11.09 B0.00 [Dwell Home End]
G4 C360 [Add Extra 360 deg.]

[Layer 2 : Pass 11]
D0 LA=2_of_3 PA=11_of_30 RPM=29.09 CS=4 WA=55 WM=ms LD=3.75 FW=0.23 HL= [Display Layer Properties]
G1 Z72.00 R11.09 B40.00 [Move Far End]
G4 L601 C120.00 R11.09 B0.00 [Dwell Far End]
G4 C360 [Add Extra 360 deg.]
G1 Z7.00 R11.09 B-40.00 [Move Home End]
G4 L602 C132.00 R11.09 B0.00 [Dwell Home End]
G4 C360 [Add Extra 360 deg.]

[Layer 2 : Pass 12]
D0 LA=2_of_3 PA=12_of_30 RPM=29.09 CS=4 WA=55 WM=ms LD=3.75 FW=0.23 HL= [Display Layer Properties]
G1 Z72.00 R11.09 B40.00 [Move Far End]
G4 L601 C132.00 R11.09 B0.00 [Dwell Far End]
G4 C360 [Add Extra 360 deg.]
G1 Z7.00 R11.09 B-40.00 [Move Home End]
G4 L602 C144.00 R11.09 B0.00 [Dwell Home End]
G4 C360 [Add Extra 360 deg.]

[Layer 2 : Pass 13]
D0 LA=2_of_3 PA=13_of_30 RPM=29.09 CS=4 WA=55 WM=ms LD=3.75 FW=0.23 HL= [Display Layer Properties]
G1 Z72.00 R11.09 B40.00 [Move Far End]
G4 L601 C144.00 R11.09 B0.00 [Dwell Far End]
G4 C360 [Add Extra 360 deg.]
G1 Z7.00 R11.09 B-40.00 [Move Home End]
G4 L602 C156.00 R11.09 B0.00 [Dwell Home End]
G4 C360 [Add Extra 360 deg.]

[Layer 2 : Pass 14]
D0 LA=2_of_3 PA=14_of_30 RPM=29.09 CS=4 WA=55 WM=ms LD=3.75 FW=0.23 HL= [Display Layer Properties]
G1 Z72.00 R11.09 B40.00 [Move Far End]
G4 L601 C156.00 R11.09 B0.00 [Dwell Far End]
G4 C360 [Add Extra 360 deg.]
G1 Z7.00 R11.09 B-40.00 [Move Home End]
G4 L602 C168.00 R11.09 B0.00 [Dwell Home End]
G4 C360 [Add Extra 360 deg.]

[Layer 2 : Pass 15]
D0 LA=2_of_3 PA=15_of_30 RPM=29.09 CS=4 WA=55 WM=ms LD=3.75 FW=0.23 HL= [Display Layer Properties]
G1 Z72.00 R11.09 B40.00 [Move Far End]
G4 L601 C168.00 R11.09 B0.00 [Dwell Far End]
G4 C360 [Add Extra 360 deg.]
G1 Z7.00 R11.09 B-40.00 [Move Home End]
G4 L602 C180.00 R11.09 B0.00 [Dwell Home End]
G4 C360 [Add Extra 360 deg.]

[Layer 2 : Pass 16]
D0 LA=2_of_3 PA=16_of_30 RPM=29.09 CS=4 WA=55 WM=ms LD=3.75 FW=0.23 HL= [Display Layer Properties]
G1 Z72.00 R11.09 B40.00 [Move Far End]
G4 L601 C180.00 R11.09 B0.00 [Dwell Far End]
G4 C360 [Add Extra 360 deg.]
G1 Z7.00 R11.09 B-40.00 [Move Home End]
G4 L602 C192.00 R11.09 B0.00 [Dwell Home End]
G4 C360 [Add Extra 360 deg.]

[Layer 2 : Pass 17]
D0 LA=2_of_3 PA=17_of_30 RPM=29.09 CS=4 WA=55 WM=ms LD=3.75 FW=0.23 HL= [Display Layer Properties]
G1 Z72.00 R11.09 B40.00 [Move Far End]
G4 L601 C192.00 R11.09 B0.00 [Dwell Far End]
G4 C360 [Add Extra 360 deg.]
G1 Z7.00 R11.09 B-40.00 [Move Home End]
G4 L602 C204.00 R11.09 B0.00 [Dwell Home End]
G4 C360 [Add Extra 360 deg.]

[Layer 2 : Pass 18]
D0 LA=2_of_3 PA=18_of_30 RPM=29.09 CS=4 WA=55 WM=ms LD=3.75 FW=0.23 HL= [Display Layer Properties]
G1 Z72.00 R11.09 B40.00 [Move Far End]
G4 L601 C204.00 R11.09 B0.00 [Dwell Far End]
G4 C360 [Add Extra 360 deg.]
G1 Z7.00 R11.09 B-40.00 [Move Home End]
G4 L602 C216.00 R11.09 B0.00 [Dwell Home End]
G4 C360 [Add Extra 360 deg.]

[Layer 2 : Pass 19]
D0 LA=2_of_3 PA=19_of_30 RPM=29.09 CS=4 WA=55 WM=ms LD=3.75 FW=0.23 HL= [Display Layer Properties]
G1 Z72.00 R11.09 B40.00 [Move Far End]
G4 L601 C216.00 R11.09 B0.00 [Dwell Far End]
G4 C360 [Add Extra 360 deg.]
G1 Z7.00 R11.09 B-40.00 [Move Home End]
G4 L602 C228.00 R11.09 B0.00 [Dwell Home End]
G4 C360 [Add Extra 360 deg.]

[Layer 2 : Pass 20]
D0 LA=2_of_3 PA=20_of_30 RPM=29.09 CS=4 WA=55 WM=ms LD=3.75 FW=0.23 HL= [Display Layer Properties]
G1 Z72.00 R11.09 B40.00 [Move Far End]
G4 L601 C228.00 R11.09 B0.00 [Dwell Far End]
G4 C360 [Add Extra 360 deg.]
G1 Z7.00 R11.09 B-40.00 [Move Home End]
G4 L602 C240.00 R11.09 B0.00 [Dwell Home End]
G4 C360 [Add Extra 360 deg.]

[Layer 2 : Pass 21]
D0 LA=2_of_3 PA=21_of_30 RPM=29.09 CS=4 WA=55 WM=ms LD=3.75 FW=0.23 HL= [Display Layer Properties]
G1 Z72.00 R11.09 B40.00 [Move Far End]
G4 L601 C240.00 R11.09 B0.00 [Dwell Far End]
G4 C360 [Add Extra 360 deg.]
G1 Z7.00 R11.09 B-40.00 [Move Home End]
G4 L602 C252.00 R11.09 B0.00 [Dwell Home End]
G4 C360 [Add Extra 360 deg.]

[Layer 2 : Pass 22]
D0 LA=2_of_3 PA=22_of_30 RPM=29.09 CS=4 WA=55 WM=ms LD=3.75 FW=0.23 HL= [Display Layer Properties]
G1 Z72.00 R11.09 B40.00 [Move Far End]
G4 L601 C252.00 R11.09 B0.00 [Dwell Far End]
G4 C360 [Add Extra 360 deg.]
G1 Z7.00 R11.09 B-40.00 [Move Home End]
G4 L602 C264.00 R11.09 B0.00 [Dwell Home End]
G4 C360 [Add Extra 360 deg.]

[Layer 2 : Pass 23]
D0 LA=2_of_3 PA=23_of_30 RPM=29.09 CS=4 WA=55 WM=ms LD=3.75 FW=0.23 HL= [Display Layer Properties]
G1 Z72.00 R11.09 B40.00 [Move Far End]
G4 L601 C264.00 R11.09 B0.00 [Dwell Far End]
G4 C360 [Add Extra 360 deg.]
G1 Z7.00 R11.09 B-40.00 [Move Home End]
G4 L602 C276.00 R11.09 B0.00 [Dwell Home End]
G4 C360 [Add Extra 360 deg.]

[Layer 2 : Pass 24]
D0 LA=2_of_3 PA=24_of_30 RPM=29.09 CS=4 WA=55 WM=ms LD=3.75 FW=0.23 HL= [Display Layer Properties]
G1 Z72.00 R11.09 B40.00 [Move Far End]
G4 L601 C276.00 R11.09 B0.00 [Dwell Far End]
G4 C360 [Add Extra 360 deg.]
G1 Z7.00 R11.09 B-40.00 [Move Home End]
G4 L602 C288.00 R11.09 B0.00 [Dwell Home End]
G4 C360 [Add Extra 360 deg.]

[Layer 2 : Pass 25]
D0 LA=2_of_3 PA=25_of_30 RPM=29.09 CS=4 WA=55 WM=ms LD=3.75 FW=0.23 HL= [Display Layer Properties]
G1 Z72.00 R11.09 B40.00 [Move Far End]
G4 L601 C288.00 R11.09 B0.00 [Dwell Far End]
G4 C360 [Add Extra 360 deg.]
G1 Z7.00 R11.09 B-40.00 [Move Home End]
G4 L602 C300.00 R11.09 B0.00 [Dwell Home End]
G4 C360 [Add Extra 360 deg.]

[Layer 2 : Pass 26]
D0 LA=2_of_3 PA=26_of_30 RPM=29.09 CS=4 WA=55 WM=ms LD=3.75 FW=0.23 HL= [Display Layer Properties]
G1 Z72.00 R11.09 B40.00 [Move Far End]
G4 L601 C300.00 R11.09 B0.00 [Dwell Far End]
G4 C360 [Add Extra 360 deg.]
G1 Z7.00 R11.09 B-40.00 [Move Home End]
G4 L602 C312.00 R11.09 B0.00 [Dwell Home End]
G4 C360 [Add Extra 360 deg.]

[Layer 2 : Pass 27]
D0 LA=2_of_3 PA=27_of_30 RPM=29.09 CS=4 WA=55 WM=ms LD=3.75 FW=0.23 HL= [Display Layer Properties]
G1 Z72.00 R11.09 B40.00 [Move Far End]
G4 L601 C312.00 R11.09 B0.00 [Dwell Far End]
G4 C360 [Add Extra 360 deg.]
G1 Z7.00 R11.09 B-40.00 [Move Home End]
G4 L602 C324.00 R11.09 B0.00 [Dwell Home End]
G4 C360 [Add Extra 360 deg.]

[Layer 2 : Pass 28]
D0 LA=2_of_3 PA=28_of_30 RPM=29.09 CS=4 WA=55 WM=ms LD=3.75 FW=0.23 HL= [Display Layer Properties]
G1 Z72.00 R11.09 B40.00 [Move Far End]
G4 L601 C324.00 R11.09 B0.00 [Dwell Far End]
G4 C360 [Add Extra 360 deg.]
G1 Z7.00 R11.09 B-40.00 [Move Home End]
G4 L602 C336.00 R11.09 B0.00 [Dwell Home End]
G4 C360 [Add Extra 360 deg.]

[Layer 2 : Pass 29]
D0 LA=2_of_3 PA=29_of_30 RPM=29.09 CS=4 WA=55 WM=ms LD=3.75 FW=0.23 HL= [Display Layer Properties]
G1 Z72.00 R11.09 B40.00 [Move Far End]
G4 L601 C336.00 R11.09 B0.00 [Dwell Far End]
G4 C360 [Add Extra 360 deg.]
G1 Z7.00 R11.09 B-40.00 [Move Home End]
G4 L602 C348.00 R11.09 B0.00 [Dwell Home End]
G4 C360 [Add Extra 360 deg.]

[Layer 2 : Pass 30]
D0 LA=2_of_3 PA=30_of_30 RPM=29.09 CS=4 WA=55 WM=ms LD=3.75 FW=0.23 HL= [Display Layer Properties]
G1 Z72.00 R11.09 B40.00 [Move Far End]
G4 L601 C348.00 R11.09 B0.00 [Dwell Far End]
G4 C360 [Add Extra 360 deg.]
G1 Z7.00 R11.09 B-40.00 [Move Home End]
G4 L602 C360.00 R11.09 B0.00 [Dwell Home End]
G4 C360 [Add Extra 360 deg.]


[Layer 3 : Pass 1]
D0 LA=3_of_3 PA=1_of_30 RPM=29.09 CS=4 WA=55 WM=ms TI=-14.3 LD=3.75 FW=0.23 [Display Layer Properties]
M4 S29.09 [Mandrel CW Rotation]
G4 C360 [360 DEG AT START]
M602 [Save the Mandrel Home End Reference Angle at Start of First Pass to Register L602]
G1 F4 Z72.00 R11.09 B40.00 [Move Far End]
G4 C360 R11.09 B0.00 [Dwell Far End]
G4 C360 [Add Extra 360 deg.]
M601 [Save Mandrel Ref Angle]
G1 F4 Z7.00 R11.09 B-40.00 [Move Home End]
G4 L602 C12.00 R11.09 B0.00 [Dwell Home End]
G4 C360 [Add Extra 360 deg.]

[Layer 3 : Pass 2]
D0 LA=3_of_3 PA=2_of_30 RPM=29.09 CS=4 WA=55 WM=ms LD=3.75 FW=0.23 HL= [Display Layer Properties]
G1 Z72.00 R11.09 B40.00 [Move Far End]
G4 L601 C12.00 R11.09 B0.00 [Dwell Far End]
G4 C360 [Add Extra 360 deg.]
G1 Z7.00 R11.09 B-40.00 [Move Home End]
G4 L602 C24.00 R11.09 B0.00 [Dwell Home End]
G4 C360 [Add Extra 360 deg.]

[Layer 3 : Pass 3]
D0 LA=3_of_3 PA=3_of_30 RPM=29.09 CS=4 WA=55 WM=ms LD=3.75 FW=0.23 HL= [Display Layer Properties]
G1 Z72.00 R11.09 B40.00 [Move Far End]
G4 L601 C24.00 R11.09 B0.00 [Dwell Far End]
G4 C360 [Add Extra 360 deg.]
G1 Z7.00 R11.09 B-40.00 [Move Home End]
G4 L602 C36.00 R11.09 B0.00 [Dwell Home End]
G4 C360 [Add Extra 360 deg.]

[Layer 3 : Pass 4]
D0 LA=3_of_3 PA=4_of_30 RPM=29.09 CS=4 WA=55 WM=ms LD=3.75 FW=0.23 HL= [Display Layer Properties]
G1 Z72.00 R11.09 B40.00 [Move Far End]
G4 L601 C36.00 R11.09 B0.00 [Dwell Far End]
G4 C360 [Add Extra 360 deg.]
G1 Z7.00 R11.09 B-40.00 [Move Home End]
G4 L602 C48.00 R11.09 B0.00 [Dwell Home End]
G4 C360 [Add Extra 360 deg.]

[Layer 3 : Pass 5]
D0 LA=3_of_3 PA=5_of_30 RPM=29.09 CS=4 WA=55 WM=ms LD=3.75 FW=0.23 HL= [Display Layer Properties]
G1 Z72.00 R11.09 B40.00 [Move Far End]
G4 L601 C48.00 R11.09 B0.00 [Dwell Far End]
G4 C360 [Add Extra 360 deg.]
G1 Z7.00 R11.09 B-40.00 [Move Home End]
G4 L602 C60.00 R11.09 B0.00 [Dwell Home End]
G4 C360 [Add Extra 360 deg.]

[Layer 3 : Pass 6]
D0 LA=3_of_3 PA=6_of_30 RPM=29.09 CS=4 WA=55 WM=ms LD=3.75 FW=0.23 HL= [Display Layer Properties]
G1 Z72.00 R11.09 B40.00 [Move Far End]
G4 L601 C60.00 R11.09 B0.00 [Dwell Far End]
G4 C360 [Add Extra 360 deg.]
G1 Z7.00 R11.09 B-40.00 [Move Home End]
G4 L602 C72.00 R11.09 B0.00 [Dwell Home End]
G4 C360 [Add Extra 360 deg.]

[Layer 3 : Pass 7]
D0 LA=3_of_3 PA=7_of_30 RPM=29.09 CS=4 WA=55 WM=ms LD=3.75 FW=0.23 HL= [Display Layer Properties]
G1 Z72.00 R11.09 B40.00 [Move Far End]
G4 L601 C72.00 R11.09 B0.00 [Dwell Far End]
G4 C360 [Add Extra 360 deg.]
G1 Z7.00 R11.09 B-40.00 [Move Home End]
G4 L602 C84.00 R11.09 B0.00 [Dwell Home End]
G4 C360 [Add Extra 360 deg.]

[Layer 3 : Pass 8]
D0 LA=3_of_3 PA=8_of_30 RPM=29.09 CS=4 WA=55 WM=ms LD=3.75 FW=0.23 HL= [Display Layer Properties]
G1 Z72.00 R11.09 B40.00 [Move Far End]
G4 L601 C84.00 R11.09 B0.00 [Dwell Far End]
G4 C360 [Add Extra 360 deg.]
G1 Z7.00 R11.09 B-40.00 [Move Home End]
G4 L602 C96.00 R11.09 B0.00 [Dwell Home End]
G4 C360 [Add Extra 360 deg.]

[Layer 3 : Pass 9]
D0 LA=3_of_3 PA=9_of_30 RPM=29.09 CS=4 WA=55 WM=ms LD=3.75 FW=0.23 HL= [Display Layer Properties]
G1 Z72.00 R11.09 B40.00 [Move Far End]
G4 L601 C96.00 R11.09 B0.00 [Dwell Far End]
G4 C360 [Add Extra 360 deg.]
G1 Z7.00 R11.09 B-40.00 [Move Home End]
G4 L602 C108.00 R11.09 B0.00 [Dwell Home End]
G4 C360 [Add Extra 360 deg.]

[Layer 3 : Pass 10]
D0 LA=3_of_3 PA=10_of_30 RPM=29.09 CS=4 WA=55 WM=ms LD=3.75 FW=0.23 HL= [Display Layer Properties]
G1 Z72.00 R11.09 B40.00 [Move Far End]
G4 L601 C108.00 R11.09 B0.00 [Dwell Far End]
G4 C360 [Add Extra 360 deg.]
G1 Z7.00 R11.09 B-40.00 [Move Home End]
G4 L602 C120.00 R11.09 B0.00 [Dwell Home End]
G4 C360 [Add Extra 360 deg.]

[Layer 3 : Pass 11]
D0 LA=3_of_3 PA=11_of_30 RPM=29.09 CS=4 WA=55 WM=ms LD=3.75 FW=0.23 HL= [Display Layer Properties]
G1 Z72.00 R11.09 B40.00 [Move Far End]
G4 L601 C120.00 R11.09 B0.00 [Dwell Far End]
G4 C360 [Add Extra 360 deg.]
G1 Z7.00 R11.09 B-40.00 [Move Home End]
G4 L602 C132.00 R11.09 B0.00 [Dwell Home End]
G4 C360 [Add Extra 360 deg.]

[Layer 3 : Pass 12]
D0 LA=3_of_3 PA=12_of_30 RPM=29.09 CS=4 WA=55 WM=ms LD=3.75 FW=0.23 HL= [Display Layer Properties]
G1 Z72.00 R11.09 B40.00 [Move Far End]
G4 L601 C132.00 R11.09 B0.00 [Dwell Far End]
G4 C360 [Add Extra 360 deg.]
G1 Z7.00 R11.09 B-40.00 [Move Home End]
G4 L602 C144.00 R11.09 B0.00 [Dwell Home End]
G4 C360 [Add Extra 360 deg.]

[Layer 3 : Pass 13]
D0 LA=3_of_3 PA=13_of_30 RPM=29.09 CS=4 WA=55 WM=ms LD=3.75 FW=0.23 HL= [Display Layer Properties]
G1 Z72.00 R11.09 B40.00 [Move Far End]
G4 L601 C144.00 R11.09 B0.00 [Dwell Far End]
G4 C360 [Add Extra 360 deg.]
G1 Z7.00 R11.09 B-40.00 [Move Home End]
G4 L602 C156.00 R11.09 B0.00 [Dwell Home End]
G4 C360 [Add Extra 360 deg.]

[Layer 3 : Pass 14]
D0 LA=3_of_3 PA=14_of_30 RPM=29.09 CS=4 WA=55 WM=ms LD=3.75 FW=0.23 HL= [Display Layer Properties]
G1 Z72.00 R11.09 B40.00 [Move Far End]
G4 L601 C156.00 R11.09 B0.00 [Dwell Far End]
G4 C360 [Add Extra 360 deg.]
G1 Z7.00 R11.09 B-40.00 [Move Home End]
G4 L602 C168.00 R11.09 B0.00 [Dwell Home End]
G4 C360 [Add Extra 360 deg.]

[Layer 3 : Pass 15]
D0 LA=3_of_3 PA=15_of_30 RPM=29.09 CS=4 WA=55 WM=ms LD=3.75 FW=0.23 HL= [Display Layer Properties]
G1 Z72.00 R11.09 B40.00 [Move Far End]
G4 L601 C168.00 R11.09 B0.00 [Dwell Far End]
G4 C360 [Add Extra 360 deg.]
G1 Z7.00 R11.09 B-40.00 [Move Home End]
G4 L602 C180.00 R11.09 B0.00 [Dwell Home End]
G4 C360 [Add Extra 360 deg.]

[Layer 3 : Pass 16]
D0 LA=3_of_3 PA=16_of_30 RPM=29.09 CS=4 WA=55 WM=ms LD=3.75 FW=0.23 HL= [Display Layer Properties]
G1 Z72.00 R11.09 B40.00 [Move Far End]
G4 L601 C180.00 R11.09 B0.00 [Dwell Far End]
G4 C360 [Add Extra 360 deg.]
G1 Z7.00 R11.09 B-40.00 [Move Home End]
G4 L602 C192.00 R11.09 B0.00 [Dwell Home End]
G4 C360 [Add Extra 360 deg.]

[Layer 3 : Pass 17]
D0 LA=3_of_3 PA=17_of_30 RPM=29.09 CS=4 WA=55 WM=ms LD=3.75 FW=0.23 HL= [Display Layer Properties]
G1 Z72.00 R11.09 B40.00 [Move Far End]
G4 L601 C192.00 R11.09 B0.00 [Dwell Far End]
G4 C360 [Add Extra 360 deg.]
G1 Z7.00 R11.09 B-40.00 [Move Home End]
G4 L602 C204.00 R11.09 B0.00 [Dwell Home End]
G4 C360 [Add Extra 360 deg.]

[Layer 3 : Pass 18]
D0 LA=3_of_3 PA=18_of_30 RPM=29.09 CS=4 WA=55 WM=ms LD=3.75 FW=0.23 HL= [Display Layer Properties]
G1 Z72.00 R11.09 B40.00 [Move Far End]
G4 L601 C204.00 R11.09 B0.00 [Dwell Far End]
G4 C360 [Add Extra 360 deg.]
G1 Z7.00 R11.09 B-40.00 [Move Home End]
G4 L602 C216.00 R11.09 B0.00 [Dwell Home End]
G4 C360 [Add Extra 360 deg.]

[Layer 3 : Pass 19]
D0 LA=3_of_3 PA=19_of_30 RPM=29.09 CS=4 WA=55 WM=ms LD=3.75 FW=0.23 HL= [Display Layer Properties]
G1 Z72.00 R11.09 B40.00 [Move Far End]
G4 L601 C216.00 R11.09 B0.00 [Dwell Far End]
G4 C360 [Add Extra 360 deg.]
G1 Z7.00 R11.09 B-40.00 [Move Home End]
G4 L602 C228.00 R11.09 B0.00 [Dwell Home End]
G4 C360 [Add Extra 360 deg.]

[Layer 3 : Pass 20]
D0 LA=3_of_3 PA=20_of_30 RPM=29.09 CS=4 WA=55 WM=ms LD=3.75 FW=0.23 HL= [Display Layer Properties]
G1 Z72.00 R11.09 B40.00 [Move Far End]
G4 L601 C228.00 R11.09 B0.00 [Dwell Far End]
G4 C360 [Add Extra 360 deg.]
G1 Z7.00 R11.09 B-40.00 [Move Home End]
G4 L602 C240.00 R11.09 B0.00 [Dwell Home End]
G4 C360 [Add Extra 360 deg.]

[Layer 3 : Pass 21]
D0 LA=3_of_3 PA=21_of_30 RPM=29.09 CS=4 WA=55 WM=ms LD=3.75 FW=0.23 HL= [Display Layer Properties]
G1 Z72.00 R11.09 B40.00 [Move Far End]
G4 L601 C240.00 R11.09 B0.00 [Dwell Far End]
G4 C360 [Add Extra 360 deg.]
G1 Z7.00 R11.09 B-40.00 [Move Home End]
G4 L602 C252.00 R11.09 B0.00 [Dwell Home End]
G4 C360 [Add Extra 360 deg.]

[Layer 3 : Pass 22]
D0 LA=3_of_3 PA=22_of_30 RPM=29.09 CS=4 WA=55 WM=ms LD=3.75 FW=0.23 HL= [Display Layer Properties]
G1 Z72.00 R11.09 B40.00 [Move Far End]
G4 L601 C252.00 R11.09 B0.00 [Dwell Far End]
G4 C360 [Add Extra 360 deg.]
G1 Z7.00 R11.09 B-40.00 [Move Home End]
G4 L602 C264.00 R11.09 B0.00 [Dwell Home End]
G4 C360 [Add Extra 360 deg.]

[Layer 3 : Pass 23]
D0 LA=3_of_3 PA=23_of_30 RPM=29.09 CS=4 WA=55 WM=ms LD=3.75 FW=0.23 HL= [Display Layer Properties]
G1 Z72.00 R11.09 B40.00 [Move Far End]
G4 L601 C264.00 R11.09 B0.00 [Dwell Far End]
G4 C360 [Add Extra 360 deg.]
G1 Z7.00 R11.09 B-40.00 [Move Home End]
G4 L602 C276.00 R11.09 B0.00 [Dwell Home End]
G4 C360 [Add Extra 360 deg.]

[Layer 3 : Pass 24]
D0 LA=3_of_3 PA=24_of_30 RPM=29.09 CS=4 WA=55 WM=ms LD=3.75 FW=0.23 HL= [Display Layer Properties]
G1 Z72.00 R11.09 B40.00 [Move Far End]
G4 L601 C276.00 R11.09 B0.00 [Dwell Far End]
G4 C360 [Add Extra 360 deg.]
G1 Z7.00 R11.09 B-40.00 [Move Home End]
G4 L602 C288.00 R11.09 B0.00 [Dwell Home End]
G4 C360 [Add Extra 360 deg.]

[Layer 3 : Pass 25]
D0 LA=3_of_3 PA=25_of_30 RPM=29.09 CS=4 WA=55 WM=ms LD=3.75 FW=0.23 HL= [Display Layer Properties]
G1 Z72.00 R11.09 B40.00 [Move Far End]
G4 L601 C288.00 R11.09 B0.00 [Dwell Far End]
G4 C360 [Add Extra 360 deg.]
G1 Z7.00 R11.09 B-40.00 [Move Home End]
G4 L602 C300.00 R11.09 B0.00 [Dwell Home End]
G4 C360 [Add Extra 360 deg.]

[Layer 3 : Pass 26]
D0 LA=3_of_3 PA=26_of_30 RPM=29.09 CS=4 WA=55 WM=ms LD=3.75 FW=0.23 HL= [Display Layer Properties]
G1 Z72.00 R11.09 B40.00 [Move Far End]
G4 L601 C300.00 R11.09 B0.00 [Dwell Far End]
G4 C360 [Add Extra 360 deg.]
G1 Z7.00 R11.09 B-40.00 [Move Home End]
G4 L602 C312.00 R11.09 B0.00 [Dwell Home End]
G4 C360 [Add Extra 360 deg.]

[Layer 3 : Pass 27]
D0 LA=3_of_3 PA=27_of_30 RPM=29.09 CS=4 WA=55 WM=ms LD=3.75 FW=0.23 HL= [Display Layer Properties]
G1 Z72.00 R11.09 B40.00 [Move Far End]
G4 L601 C312.00 R11.09 B0.00 [Dwell Far End]
G4 C360 [Add Extra 360 deg.]
G1 Z7.00 R11.09 B-40.00 [Move Home End]
G4 L602 C324.00 R11.09 B0.00 [Dwell Home End]
G4 C360 [Add Extra 360 deg.]

[Layer 3 : Pass 28]
D0 LA=3_of_3 PA=28_of_30 RPM=29.09 CS=4 WA=55 WM=ms LD=3.75 FW=0.23 HL= [Display Layer Properties]
G1 Z72.00 R11.09 B40.00 [Move Far End]
G4 L601 C324.00 R11.09 B0.00 [Dwell Far End]
G4 C360 [Add Extra 360 deg.]
G1 Z7.00 R11.09 B-40.00 [Move Home End]
G4 L602 C336.00 R11.09 B0.00 [Dwell Home End]
G4 C360 [Add Extra 360 deg.]

[Layer 3 : Pass 29]
D0 LA=3_of_3 PA=29_of_30 RPM=29.09 CS=4 WA=55 WM=ms LD=3.75 FW=0.23 HL= [Display Layer Properties]
G1 Z72.00 R11.09 B40.00 [Move Far End]
G4 L601 C336.00 R11.09 B0.00 [Dwell Far End]
G4 C360 [Add Extra 360 deg.]
G1 Z7.00 R11.09 B-40.00 [Move Home End]
G4 L602 C348.00 R11.09 B0.00 [Dwell Home End]
G4 C360 [Add Extra 360 deg.]

[Layer 3 : Pass 30]
D0 LA=3_of_3 PA=30_of_30 RPM=29.09 CS=4 WA=55 WM=ms LD=3.75 FW=0.23 HL= [Display Layer Properties]
G1 Z72.00 R11.09 B40.00 [Move Far End]
G4 L601 C348.00 R11.09 B0.00 [Dwell Far End]
G4 C360 [Add Extra 360 deg.]
G1 Z7.00 R11.09 B-40.00 [Move Home End]
G4 L602 C360.00 R11.09 B0.00 [Dwell Home End]
G4 C360 [Add Extra 360 deg.]


D0 GM=Winding_Process_Complete
M5 [Mandrel Stop - Winding Complete]

M5 [Mandrel Stop]
